**kern
*staff3
*tb8
=1-
*clefF4
*k[f#c#]
*M6/8
2.D\
.
.
.
.
.
=2
*^
4B/	2.D\
.	.
8A/	.
4G/	.
.	.
8F#/	.
=3	=3
4B/	2.D\
.	.
8A/	.
4G/	.
.	.
8F#/	.
*v	*v
=4
!!linebreak:original
*^
4G/	4.D\
.	.
8F#/	.
4E/	4.AA\
.	.
8D/	.
*v	*v
=5
4G\
.
8F#\
4E\
.
8D\
=6
4GG/
.
8r
4.EE/
.
.
=7
!!linebreak:original
4.BB/
.
.
4E\
.
8r
=8
4.AA/
.
.
4.D\
.
.
=9
4cn\
.
8B\
4A\
.
8G\
=10
!!linebreak:original
8B\L
8B-\
8A\
8D\ 8G#\
8A\
8F#\J
=11
4GG/ 4G/
.
8r
4.AA\ 4.G\
.
.
=12
4.DD/ 4.D/
.
.
4r
.
8A\
=13
!!linebreak:original
*^
4B/	2.D\
.	.
8A/	.
4G#/	.
.	.
8B/	.
=14	=14
4A/	2.D\
.	.
8F#/	.
4G/	.
.	.
8B-/	.
*v	*v
=15
4.D\ 4.A\
.
.
4.A\ 4.c#\
.
.
=16
*^
4.e/	2.D\ 2.A\
.	.
.	.
4.d/	.
.	.
.	.
*v	*v
==
*-
